X: 1
T: String Quartet in F Minor opus 55 no 2 mvt 4
C: Franz Joseph Haydn
%%abc-version 2.0
%%abcx-abcm2ps-target-version 5.9.1 (29 Sep 2008)
%%abc-creator hum2abc beta
%%abcx-conversion-date 2021/02/14 14:38:14
%%abc-copyright Copyright (c) 1994, 2000 Center for Computer Assisted Research in the Humanities
%%abc-edited-by Frances Bennion
%%abcx-initial-encoding-date 1997/04/15
%%gracespace 0 6 6
%%humdrum-veritas 1899740742
%%humdrum-veritas-data 221099112
%%linebreak <none>
%%barnumbers 0
L: 1/8
M: 6/8
N: Derived from op55n2-04.krn
Q: "Presto"
%%staves [1 2 3 4]
V: 1
V: 2
V: 3 clef=alto
V: 4 clef=bass
K: F
[V:1]z4 z^G [I:setbarnb1]|
[V:2]z4 zz |
[V:3]z4 zz |
[V:4]z4 zz |
[V:1]AA=B cc^c |
[V:2]Cz2 Az2 |
[V:3]A,z2 A,z2 |
[V:4]F,z2 F,z2 |
[V:1]dd/^c/d/B/ Gz^F |
[V:2]DDD Dz2 |
[V:3]B,B,B, B,z2 |
[V:4]F,F,F, F,z2 |
[V:1]GGA BB=B |
[V:2]Dz2 Dz2 |
[V:3]B,z2 B,z2 |
[V:4]F,z2 F,z2 |
[V:1]cc/=B/c/A/ Fzf |
[V:2]CCC Cz2 |
[V:3]A,A,A, A,z2 |
[V:4]F,F,F, F,z2 |
[V:1]eec' ffd' |
[V:2]B2z A2z |
[V:3]G2z F2z |
[V:4]C,2z D,2z |
[V:1]=bb/a/b/g/ c'z^G |
[V:2]ff/e/f/d/ czE |
[V:3]DDD/F/ Ez2 |
[V:4]G,G,G, Cz2 |
[V:1]Az=B cz^c |
[V:2]Fz^G AzA |
[V:3]zFz2 Fz |
[V:4]zF,z2 F,z |
[V:1]dd/^c/d/B/ Gz^F |
[V:2]BDD DDA, |
[V:3]zB,B, B,B,z |
[V:4]zF,F, F,F,z |
[V:1]GzA Bz=B |
[V:2]B,z^F Gz^G |
[V:3]zF,z2 F,z |
[V:4]zF,,z2 F,,z |
[V:1]cc/=B/c/A/ Fzf |
[V:2]ACC CCz |
[V:3]zA,A, A,A,z |
[V:4]zF,,F,, F,,F,,z |
[V:1]eec' ffd' |
[V:2]BBz AAz |
[V:3]G,G,z F,F,z |
[V:4]C,C,z D,D,z |
[V:1]=bb/a/b/g/ c'zc |
[V:2]ff/e/f/d/ czE |
[V:3]DDD/F/ Ez2 |
[V:4]G,G,G, CzC |
[V:1]dde ffa |
[V:2]FFG AAf |
[V:3]z2G FFF/A/ |
[V:4]=B,B,_B, A,A,z |
[V:1]gg/a/g/a/ gzd |
[V:2]ee/f/e/f/ ezF |
[V:3]cc/=B/c/B/ cz2 |
[V:4]z4 zD |
[V:1]ee^f ggb |
[V:2]GGA BBg |
[V:3]z2A GGG/B/ |
[V:4]^CC=C B,B,z |
[V:1]aa/b/a/b/ azd' |
[V:2]^ff/g/f/g/ fzA |
[V:3]dd/^c/d/c/ dz^F |
[V:4]z3 D3- |
[V:1]_e'e'^c' d'd'=c' |
[V:2]BBG AA^F |
[V:3]GGE ^FFA |
[V:4]D6 |
[V:1]bc'a gz2 |
[V:2]GA^F Gz2 |
[V:3]G_EC B,zA, |
[V:4]_ECD G,z^F, |
[V:1]z2^c ddz |
[V:2]z2A BBz |
[V:3]B,B,2 <z2^G, |
[V:4]G,G,2 <z2E, |
[V:1]z2=B cc^g |
[V:2]z2^G AAG |
[V:3]A,A,2 <z2E, |
[V:4]F,F,2 <z2E,, |
[V:1]aA=b c'c^c' |
[V:2]AA,=B cC^c |
[V:3]F,C^G, A,FA, |
[V:4]F,,C,^G,, A,,F,A,, |
[V:1]d'd'/b/d'/b/ gz^f |
[V:2]dd/B/d/B/ Gz^F |
[V:3]B,D^F GBA, |
[V:4]B,,D,^F, G,B,A,, |
[V:1]gGa bB=b |
[V:2]GG,A BB,=B |
[V:3]B,D^F, G,D^G, |
[V:4]B,,D,^F,, G,,D,^G,, |
[V:1]c'c'/a/c'/a/ fzf |
[V:2]cc/A/c/A/ Fz2 |
[V:3]A,CE FAz |
[V:4]A,,C,E, F,A,z |
[V:1]eec' ffd' |
[V:2]B2z AzB |
[V:3]G2z F2z |
[V:4]C,2z D,2B,, |
[V:1]c'/b/a/g/f/e/ fzA |
[V:2]EEG FzF |
[V:3]B,2>A,2 z2 |
[V:4]C,C,C, F,,z2 |
[V:1]BBA GGz |
[V:2]GGF CCz |
[V:3]z4 zA, |
[V:4]z4 zF, |
[V:1]z4 zc' |
[V:2]z4 ze |
[V:3]B,B,A, G,G,z |
[V:4]G,G,F, C,C,C |
[V:1]=bb_b2 ag |
[V:2]ffg2 cd |
[V:3]z2c2 AB |
[V:4]DDE2 FB, |
[V:1]ff/e/g/e/ fzA |
[V:2]AA/G/B/G/ AzF |
[V:3]cCC Fz2 |
[V:4]CCC F,z2 |
[V:1]B/c/d/c/B/A/ GGz |
[V:2]G/A/B/A/G/F/ CCz |
[V:3]z4 zA, |
[V:4]z4 zF, |
[V:1]z4 zc' |
[V:2]z4 ze |
[V:3]B,/C/D/C/B,/A,/ G,G,z |
[V:4]G,/A,/B,/A,/G,/F,/ C,C,C |
[V:1]=bb_b2 ag |
[V:2]ffg2 cd |
[V:3]z2c2 AB |
[V:4]DDE2 FB, |
[V:1]ff/e/g/e/ f/c/A/a/f/c/ |
[V:2]AA/G/B/G/ [F3A3] |
[V:3]cCC [F3C3] |
[V:4]CCC F,3- |
[V:1]g/e/c/b/g/e/ f/c/A/a/f/c/ |
[V:2][B3G3] [A3F3] |
[V:3][C2E2]C [C3F3] |
[V:4]F,6- |
[V:1]g/e/c/b/g/e/ a/f/c/c'/a/f/ |
[V:2][B2G2]>[A2F2] cc |
[V:3][C2E2]C FAA |
[V:4]F,6 |
[V:1]g/e/c/c'/g/e/ f/g/a/g/f/e/ |
[V:2]c6 |
[V:3]G3 A3 |
[V:4]E,3 D,3 |
[V:1]d/c/=B/A/G/F/ E/G/c/e/g/e/ |
[V:2]=B3 c3 |
[V:3]F2D GEC |
[V:4]G,3 C,3 |
[V:1]c/G/c/e/g/e/ d/f/a/f/d/c/ |
[V:2]G3 A3 |
[V:3]C2E F2^F |
[V:4]E,3 F,2^F, |
[V:1]=B/d/^f/g/d/B/ Gz^G |
[V:2]D=B,D GzE |
[V:3]GD=B, G,z2 |
[V:4]G,D,=B,, G,,z2 |
[V:1]AA=B cc^d |
[V:2]FFF GG=B |
[V:3]z2D EEz |
[V:4]z6 |
[V:1]ee^f gg^g |
[V:2]cc^d eec- |
[V:3]z4 zE |
[V:4]z6 |
[V:1]aa^f ggc' |
[V:2]ccc2 cC |
[V:3]FF^D EEG, |
[V:4]z4 zE, |
[V:1]=bag fed |
[V:2]C2^C D3 |
[V:3]A,6 |
[V:4]F,6 |
[V:1]c/G/c/e/g/e/ f/d/=B/G/F/D/ |
[V:2]E2C =B,DF |
[V:3]C2>D2 F=B, |
[V:4]G,3 G,,3 |
[V:1]E/G/=B/c/E/c/ F/A/^c/d/^F/d/ |
[V:2]EzE Fz^F |
[V:3]CzE Fz^F |
[V:4]C,zE, F,z^F, |
[V:1]G/=B/^d/e/^G/e/ A/f/B/g/c/a/ |
[V:2]Gz^G A=Bc |
[V:3]Gz^G A=Bc |
[V:4]G,z^G, A,=B,C |
[V:1]d/=b/e/c'/f/d'/ g/e'/c'/g/e/g/ |
[V:2]def ez2 |
[V:3]def cz2 |
[V:4]DEF Gz2 |
[V:1]c'/e'/c'/g/e/g/ c'/e'/c'/g/e/c/ |
[V:2]ez2 eze |
[V:3]cz2 czc |
[V:4]Gz2 Gz2 |
[V:1]G,z=B cz^d |
[V:2]fzF Ez=B |
[V:3]dzD CC,z |
[V:4]G,,zG,, C,,/E,,/G,,/C,/C,,/C,/ |
[V:1]ez^d ez^f |
[V:2]cz=B cz^d |
[V:3]CC,z CC,z |
[V:4]C,,/E,,/G,,/C,/C,,/C,/ C,,/E,,/G,,/C,/C,,/C,/ |
[V:1]gz^f gza |
[V:2]ez^d ez^f |
[V:3]CC,z CC,z |
[V:4]C,,/E,,/G,,/C,/C,,/C,/ C,,/E,,/G,,/C,/C,,/C,/ |
[V:1]bza/c'/ bza/c'/ |
[V:2]gz^f/a/ gzf/a/ |
[V:3]CC,z CC,C, |
[V:4]C,,/E,,/G,,/C,/C,,/C,/ C,,/E,,/G,,/C,/C,,/C,/ |
[V:1]bz4 z |
[V:2]gz4 z |
[V:3]E,z4 z |
[V:4]C,,z4 C |
[V:1]z6 |
[V:2]z6 |
[V:3]z2G ^FF=F |
[V:4]=B,B,_B, A,A,_A, |
[V:1]z2c =BB_B |
[V:2]z4 zG |
[V:3]EE_E DDz |
[V:4]G,G,^F, G,G,z |
[V:1]AAd ^cc=c |
[V:2]^FF=F EEA |
[V:3]z6 |
[V:4]z6 |
[V:1]=BBe ff^g |
[V:2]^GGG AAf |
[V:3]z2E DDd |
[V:4]z4 z=B, |
[V:1]aag ffb |
[V:2]eee ddd |
[V:3]AAB AAG |
[V:4]CC^C DDz |
[V:1]eea2 dg |
[V:2]^cc=c2 =B_B |
[V:3]AA^F2 GE |
[V:4]z6 |
[V:1]cfB _e2A |
[V:2]A_AG G2^F |
[V:3]FD_E C2D |
[V:4]z6 |
[V:1]dGc FBE |
[V:2]FE_E DD^C |
[V:3]=B,CA, _B,G,A, |
[V:4]z6 |
[V:1]A2D G2F |
[V:2]C2B, ^C2D |
[V:3]^F,2G, E,2D, |
[V:4]z6 |
[V:1]E/^C/A,/G/E/C/ F/D/A,/A/F/D/ |
[V:2]^CEE DFF |
[V:3]A,^CC F,DD |
[V:4]A,,6- |
[V:1]G/E/^C/B/G/E/ A/F/D/d/A/F/ |
[V:2]EGG FAA |
[V:3]^C2>D2 FF |
[V:4]A,,6- |
[V:1]^c/G/E/e/c/A/ f/d/A/a/f/d/ |
[V:2]G3 F3 |
[V:3]E3 D3 |
[V:4]A,,6- |
[V:1]b/g/e/g/e/^c/ e/c/G/c/G/E/ |
[V:2]E6 |
[V:3]^C6 |
[V:4]A,,6 |
[V:1]D/d/E/e/^F/^f/ G/g/G/g/A/a/ |
[V:2]FGA Bdc |
[V:3]D6 |
[V:4]D,2C, B,,2^F,, |
[V:1]B/b/B/b/^c/^c'/ d/d'/e/e'/f/f'/ |
[V:2]BDB AGF |
[V:3]D2G FGA |
[V:4]G,,2E,, F,,E,,D,, |
[V:1]g'ze' f'zd |
[V:2]Ezg fzA |
[V:3]GzA DzD |
[V:4]^C,,z^C DzF, |
[V:1]ez2 ^czc |
[V:2]Bz2 GzG |
[V:3]G,z2 A,z2 |
[V:4]G,z2 A,z2 |
[V:1]cz^f azf |
[V:2]^Fz_e cze |
[V:3]D,/^F,/A,/D/D,/D/ D,/F,/A,/D/D,/D/ |
[V:4]D,z4 z |
[V:1]az^f azc |
[V:2]cz_e cz^F |
[V:3]D,/^F,/A,/D/D,/D/ D,/F,/A,/D/D,/D/ |
[V:4]z6 |
[V:1]=Bzf Bzf |
[V:2]Fz=B dzB |
[V:3]G,z_A FzA |
[V:4]G,,/=B,,/D,/G,/G,,/G,/ G,,/B,,/D,/G,/G,,/G,/ |
[V:1]=Bzf Bzf |
[V:2]dz=B dzB |
[V:3]Fz_A FzD |
[V:4]G,,/=B,,/D,/G,/G,,/G,/ G,,/B,,/D,/G,/G,,/G,/ |
[V:1]eze gzg |
[V:2]Bz_d BzB |
[V:3]EzB EzG |
[V:4]C,,/E,,/G,,/C,/C,,/C,/ C,,/E,,/G,,/C,/C,,/C,/ |
[V:1]bz4 ^G |
[V:2]Gz4 z |
[V:3]Ez4 z |
[V:4]C,,2z4 |
[V:1]AA=B cc^c |
[V:2]Cz2 Az2 |
[V:3]A,z2 A,z2 |
[V:4]F,z2 F,z2 |
[V:1]dd/^c/d/B/ Gz^F |
[V:2]DDD Dz2 |
[V:3]B,B,B, B,z2 |
[V:4]F,F,F, F,z2 |
[V:1]GGA BB=B |
[V:2]Dz2 Dz2 |
[V:3]B,z2 B,z2 |
[V:4]F,z2 F,z2 |
[V:1]cc/=B/c/A/ Fzf |
[V:2]CCC Cz2 |
[V:3]A,A,A, A,z2 |
[V:4]F,F,F, F,z2 |
[V:1]eec' ffd' |
[V:2]B2z A2z |
[V:3]G2z F2z |
[V:4]C,2z D,2z |
[V:1]=bb/a/b/g/ c'zc |
[V:2]ff/e/f/d/ czE |
[V:3]DDD/F/ Ez2 |
[V:4]G,G,G, CzC |
[V:1]dde ffa |
[V:2]FFG AAf |
[V:3]z2G FFF/A/ |
[V:4]=B,B,_B, A,A,z |
[V:1]gg/a/g/a/ gzb |
[V:2]ee/f/e/f/ ezg |
[V:3]cc/=B/c/B/ czC/E/ |
[V:4]z6 |
[V:1]aa/b/a/b/ azd' |
[V:2]ff/g/f/g/ fzf |
[V:3]FAc AFz |
[V:4]z4 zB, |
[V:1]ggc'2 fb |
[V:2]ee_e2 dd |
[V:3]z2F2 BG |
[V:4]CCA,2 B,G, |
[V:1]ead g2c |
[V:2]^c=c=B _B2A |
[V:3]ADD C2F |
[V:4]A,^F,G, E,2=F, |
[V:1]fB_e AdG |
[V:2]_AGG ^F=FE |
[V:3]B,_EC DGG |
[V:4]D,_E,C, D,=B,,C, |
[V:1]c2F B2_D |
[V:2]_E2D _D2_A, |
[V:3]F2>G2 G,F, |
[V:4]A,,2B,, G,,2F,, |
[V:1]CBA Gbe |
[V:2]G,GF DdB |
[V:3]E,CC DG,G, |
[V:4]E,,2F,, B,,2C, |
[V:1]f/c/A/a/f/c/ g/e/c/b/g/e/ |
[V:2][F3A3] [B3G3] |
[V:3]A,CC [E2C2]C |
[V:4]F,6- |
[V:1]f/c/A/a/f/c/ g/e/c/b/g/e/ |
[V:2][A3F3] [B3G3] |
[V:3][F3C3] [E3C3] |
[V:4]F,6- |
[V:1]a/f/c/c'/a/f/ b/f/d/d'/b/f/ |
[V:2][A3_E3] [B3D3] |
[V:3]C3 D3 |
[V:4]F,6- |
[V:1]c'/a/f/_e'/c'/a/ d'/c'/b/a/g/f/ |
[V:2]_e2>d2 d/c/B/A/ |
[V:3]A,3 B,3 |
[V:4]F,3 B,,3 |
[V:1]ecc cz2 |
[V:2]GEE Ez^C |
[V:3]CCC CzA, |
[V:4]C,/E,/G,/C/G,/E,/ C,z2 |
[V:1]z4 z^G |
[V:2]DDE FFE |
[V:3]B,B,B, CCz |
[V:4]z2G, A,A,z |
[V:1]AA=B cc^c |
[V:2]FF^G AAF- |
[V:3]z4 zA, |
[V:4]z6 |
[V:1]dd=B ccf |
[V:2]FFF2 FC |
[V:3]B,B,^G, A,A,F, |
[V:4]z4 zA,, |
[V:1]edc BAG |
[V:2]D6 |
[V:3]F,2^F, G,3 |
[V:4]B,,6 |
[V:1]F/C/F/A/c/A/ B/G/E/C/B,/G,/ |
[V:2]A,AA GBE |
[V:3]A,FF EGB, |
[V:4]C,3 C,,3 |
[V:1]A,/C/E/F/A,/F/ B,/D/^F/G/=B,/G/ |
[V:2]FzA, B,z=B, |
[V:3]A,zA, B,z=B, |
[V:4]F,,zA,, B,,z=B,, |
[V:1]C/E/^G/A/^C/A/ D/B/E/c/F/d/ |
[V:2]Cz^C DEF |
[V:3]Cz^C DEF |
[V:4]C,z^C, D,E,F, |
[V:1]G/e/A/f/B/g/ c/a/f/c/A/c/ |
[V:2]GAB Az2 |
[V:3]GAB Fz2 |
[V:4]G,A,B, Cz2 |
[V:1]f/a/f/c/A/c/ f/a/f/c/A/F/ |
[V:2]Az2 AzA |
[V:3]Fz2 FzF |
[V:4]Cz2 Cz2 |
[V:1]CzE FzA |
[V:2]BzB, A,zF |
[V:3]GzG, F,z2 |
[V:4]C,zC, F,,z2 |
[V:1]BBA GGc/c'/ |
[V:2]GGF CCz |
[V:3]z4 zA, |
[V:4]z4 zF, |
[V:1]c/c'/c/c'/c/c'/ c/c'/c/c'/c/c'/ |
[V:2]z4 ze |
[V:3]B,B,A, G,G,z |
[V:4]G,G,F, C,C,C |
[V:1]=B/=b/B/b/_B/_b/ A/a/A/a/B/g/ |
[V:2]ffg ccd |
[V:3]z2c2 AB |
[V:4]DDE FFB, |
[V:1]A/c/f/a/g/e/ fzA |
[V:2]AA/c/B/G/ AzF |
[V:3]FFG/B/ Az2 |
[V:4]CC,C, F,z2 |
[V:1]B/c/d/c/B/A/ GGc/c'/ |
[V:2]G/A/B/A/G/F/ CCz |
[V:3]z4 zA, |
[V:4]z4 zF, |
[V:1]c/c'/c/c'/c/c'/ c/c'/c/c'/c/c'/ |
[V:2]z4 ze |
[V:3]B,/C/D/C/B,/A,/ G,G,z |
[V:4]G,/A,/B,/A,/G,/F,/ C,C,C |
[V:1]=B/=b/B/b/_B/_b/ A/a/A/a/B/g/ |
[V:2]ffg ccd |
[V:3]z2c2 AB |
[V:4]DDE FFB, |
[V:1]A/c/f/a/g/e/ fzf |
[V:2]AA/c/B/G/ Fzd |
[V:3]FFG/B/ AF,z |
[V:4]CC,C, F,F,,z |
[V:1]ezd cz=B |
[V:2]czB Az^G |
[V:3]zF,z2 F,z |
[V:4]z6 |
[V:1]cc/=B/c/B/ cz_B |
[V:2]AA/^G/A/G/ AzD |
[V:3]zF,F, F,FF |
[V:4]z6 |
[V:1]AzG FzE |
[V:2]CzB, A,zG, |
[V:3]EzD CzB, |
[V:4]zF,,z2 F,,z |
[V:1]FFF Fz2 |]
[V:2]A,A,A, A,z2 |]
[V:3]A,CA, F,z2 |]
[V:4]zF,,/E,,/F,,/E,,/ F,,z2 |]

